X:116
T:Black Nagg.
T:John Malchair's Third Collection of Tunes
%%VWML:Malchair-3619-p116
F:https://www.vwml.org/record/Malchair/3619/p116
F:www.vwml.org/topics/historic-dance-and-tune-books/Malchair
Z:Eric Conrad Feb 2020
W:Ed.1665.  See Coll.2d.p.36 for Galloping Nagg.
M:6/4   % MS has time signature "3"
L:1/4
K:Ddor
d>ed e>de | f3 f2g | a>g f/ e/ fe2 | d3 d2 ||
d | ecA ecA | ecA ecA | afd afd | afd afd |
ecA ecA | ecA e2 f/ g/ | a>g f/ e/ fe2 | d3- d2 |]
W:\u00a0% Using this W: as a space between tunes
T:Parsons upon Dorothy.
T:John Malchair's Third Collection of Tunes
F:https://www.vwml.org/record/Malchair/3619/p116
F:www.vwml.org/topics/historic-dance-and-tune-books/Malchair
% Z:Eric Conrad Feb 2020
W:As in Ed.1695. See an other at p.36.from Ed.1665.
W:Here the tune is more simple than in the much earlier edition. and different.
M:C|
L:1/4
K:Bb
D | GG A^F | BB Bd | c>B (A/ B/) (c/ A/) | B3 ||
d | c>B (A/B/) (c/ A/) | BB Bd | c>B (A/ B/) (c/ A/) | B3 ||
A/ B/ | cc cB/ c/ | dd dc/ B/ | AG A^F | G3 |]
W:\u00a0% Using this W: as a space between tunes
T:Ty the Pig.
T:John Malchair's Third Collection of Tunes
F:https://www.vwml.org/record/Malchair/3619/p116
F:www.vwml.org/topics/historic-dance-and-tune-books/Malchair
% Z:Eric Conrad Feb 2020
W:Ed.of 1695.
W:\u00a0
% spelling of impossible appears to have 'a' before archaic long 's' (not 'f').
% The 'a' might simply be a badly written 'o'.
W:The titles of the old Tunes so often Varie that it is impa\u017fsible to avoid
W:writing Duplicates. See the Same Coll.2.p.44.
M:6/4
L:1/4
K:F
F | F>GA GED | F2G A2A | B>cd cAF | B2G E2 ||
c | cAA F2d | dBB G2B | cAc dBd | cAc dde | f3- f>ed |
c2A F3 | c2A c3 | c2A d2e | fed cAF | c2A F2 ||


